X: 10283
T: Dogs Among The Bushes, The
R: reel
M: 4/4
K: Gmajor
|BG G2 DG G2|BG G2 cedc|BG G2 DGFG|AF F2 fdcA|
BG G2 DG G2|BG G2 c2cA|BG G2 DGFG|AF F2 fdcA:|
dggf g3f|dg g2 bgaf|dffe fgfe|df f2 af f2|
dggf g3f|dg g2 bgag|bg g2 aggf|d^cde fd=cA:|
"version 2"
|:BG G2 DG G2|BG G2 cedc|BDGB DGBG|AF F2 fdcA|
BD D2 DG G2|BG G2 cedc|B3c defd|cAeg fdcA:|
|:dggf g3f|dg g2 bgaf|dffe f3e|dffe fdcA|
dggf g3f|dg g2 bgag|bg g2 agbg|d2eg fdcA:|

